Newaita/actions/32/format-list-ordered.svg

<svg height="32" viewBox="0 0 32 32" width="32" xmlns="http://www.w3.org/2000/svg"><g fill="#424242"><path d="m28.445312 7.527344h-16.539062c-.363281 0-.660156-.296875-.660156-.660156v-1.324219c0-.367188.296875-.664063.660156-.664063h16.539062c.367188 0 .660157.296875.660157.664063v1.324219c0 .363281-.292969.660156-.660157.660156zm0 0"/><path d="m28.445312 17.449219h-16.539062c-.363281 0-.660156-.296875-.660156-.660157v-1.324218c0-.363282.296875-.660156.660156-.660156h16.539062c.367188 0 .660157.296874.660157.660156v1.324218c0 .363282-.292969.660157-.660157.660157zm0 0"/><path d="m28.445312 27.371094h-16.539062c-.363281 0-.660156-.292969-.660156-.660156v-1.324219c0-.363281.296875-.660157.660156-.660157h16.539062c.367188 0 .660157.296876.660157.660157v1.324219c0 .367187-.292969.660156-.660157.660156zm0 0"/><path d="m5.953125 2.894531h.660156c.183594 0 .332031.148438.332031.332031v5.953126c0 .183593-.148437.332031-.332031.332031h-.660156c-.183594 0-.332031-.148438-.332031-.332031v-5.953126c0-.183593.148437-.332031.332031-.332031zm0 0"/><path d="m7.609375 12.820312h.660156c.183594 0 .332031.148438.332031.328126v5.953124c0 .183594-.148437.332032-.332031.332032h-.660156c-.183594 0-.332031-.148438-.332031-.332032v-5.953124c0-.179688.148437-.328126.332031-.328126zm0 0"/><path d="m5.953125 22.742188h.660156c.183594 0 .332031.148437.332031.332031v5.953125c0 .179687-.148437.328125-.332031.328125h-.660156c-.183594 0-.332031-.148438-.332031-.328125v-5.953125c0-.183594.148437-.332031.332031-.332031zm0 0"/><path d="m4.300781 12.820312h.660157c.183593 0 .332031.148438.332031.328126v5.953124c0 .183594-.148438.332032-.332031.332032h-.660157c-.183593 0-.332031-.148438-.332031-.332032v-5.953124c0-.179688.148438-.328126.332031-.328126zm0 0"/><path d="m2.976562 22.742188h.660157c.183593 0 .332031.148437.332031.332031v5.953125c0 .179687-.148438.328125-.332031.328125h-.660157c-.183593 0-.332031-.148438-.332031-.328125v-5.953125c0-.183594.148438-.332031.332031-.332031zm0 0"/><path d="m8.929688 22.742188h.664062c.179688 0 .328125.148437.328125.332031v5.953125c0 .179687-.148437.328125-.328125.328125h-.664062c-.183594 0-.328126-.148438-.328126-.328125v-5.953125c0-.183594.144532-.332031.328126-.332031zm0 0"/></g></svg>

<svg xmlns="http://www.w3.org/2000/svg" xmlns:xlink="http://www.w3.org/1999/xlink" width="32px" height="32px" viewBox="0 0 32 32" version="1.1">
<g id="surface1">
     <defs>
  <style id="current-color-scheme" type="text/css">
   .ColorScheme-Text { color:#424242; } .ColorScheme-Highlight { color:#eeeeee; }
  </style>
 </defs>
<path style="fill:currentColor" class="ColorScheme-Text" d="M 28.445312 7.527344 L 11.90625 7.527344 C 11.542969 7.527344 11.246094 7.230469 11.246094 6.867188 L 11.246094 5.542969 C 11.246094 5.175781 11.542969 4.878906 11.90625 4.878906 L 28.445312 4.878906 C 28.8125 4.878906 29.105469 5.175781 29.105469 5.542969 L 29.105469 6.867188 C 29.105469 7.230469 28.8125 7.527344 28.445312 7.527344 Z M 28.445312 7.527344 "/>
     <defs>
  <style id="current-color-scheme" type="text/css">
   .ColorScheme-Text { color:#424242; } .ColorScheme-Highlight { color:#eeeeee; }
  </style>
 </defs>
<path style="fill:currentColor" class="ColorScheme-Text" d="M 28.445312 17.449219 L 11.90625 17.449219 C 11.542969 17.449219 11.246094 17.152344 11.246094 16.789062 L 11.246094 15.464844 C 11.246094 15.101562 11.542969 14.804688 11.90625 14.804688 L 28.445312 14.804688 C 28.8125 14.804688 29.105469 15.101562 29.105469 15.464844 L 29.105469 16.789062 C 29.105469 17.152344 28.8125 17.449219 28.445312 17.449219 Z M 28.445312 17.449219 "/>
     <defs>
  <style id="current-color-scheme" type="text/css">
   .ColorScheme-Text { color:#424242; } .ColorScheme-Highlight { color:#eeeeee; }
  </style>
 </defs>
<path style="fill:currentColor" class="ColorScheme-Text" d="M 28.445312 27.371094 L 11.90625 27.371094 C 11.542969 27.371094 11.246094 27.078125 11.246094 26.710938 L 11.246094 25.386719 C 11.246094 25.023438 11.542969 24.726562 11.90625 24.726562 L 28.445312 24.726562 C 28.8125 24.726562 29.105469 25.023438 29.105469 25.386719 L 29.105469 26.710938 C 29.105469 27.078125 28.8125 27.371094 28.445312 27.371094 Z M 28.445312 27.371094 "/>
     <defs>
  <style id="current-color-scheme" type="text/css">
   .ColorScheme-Text { color:#424242; } .ColorScheme-Highlight { color:#eeeeee; }
  </style>
 </defs>
<path style="fill:currentColor" class="ColorScheme-Text" d="M 5.953125 2.894531 L 6.613281 2.894531 C 6.796875 2.894531 6.945312 3.042969 6.945312 3.226562 L 6.945312 9.179688 C 6.945312 9.363281 6.796875 9.511719 6.613281 9.511719 L 5.953125 9.511719 C 5.769531 9.511719 5.621094 9.363281 5.621094 9.179688 L 5.621094 3.226562 C 5.621094 3.042969 5.769531 2.894531 5.953125 2.894531 Z M 5.953125 2.894531 "/>
     <defs>
  <style id="current-color-scheme" type="text/css">
   .ColorScheme-Text { color:#424242; } .ColorScheme-Highlight { color:#eeeeee; }
  </style>
 </defs>
<path style="fill:currentColor" class="ColorScheme-Text" d="M 7.609375 12.820312 L 8.269531 12.820312 C 8.453125 12.820312 8.601562 12.96875 8.601562 13.148438 L 8.601562 19.101562 C 8.601562 19.285156 8.453125 19.433594 8.269531 19.433594 L 7.609375 19.433594 C 7.425781 19.433594 7.277344 19.285156 7.277344 19.101562 L 7.277344 13.148438 C 7.277344 12.96875 7.425781 12.820312 7.609375 12.820312 Z M 7.609375 12.820312 "/>
     <defs>
  <style id="current-color-scheme" type="text/css">
   .ColorScheme-Text { color:#424242; } .ColorScheme-Highlight { color:#eeeeee; }
  </style>
 </defs>
<path style="fill:currentColor" class="ColorScheme-Text" d="M 5.953125 22.742188 L 6.613281 22.742188 C 6.796875 22.742188 6.945312 22.890625 6.945312 23.074219 L 6.945312 29.027344 C 6.945312 29.207031 6.796875 29.355469 6.613281 29.355469 L 5.953125 29.355469 C 5.769531 29.355469 5.621094 29.207031 5.621094 29.027344 L 5.621094 23.074219 C 5.621094 22.890625 5.769531 22.742188 5.953125 22.742188 Z M 5.953125 22.742188 "/>
     <defs>
  <style id="current-color-scheme" type="text/css">
   .ColorScheme-Text { color:#424242; } .ColorScheme-Highlight { color:#eeeeee; }
  </style>
 </defs>
<path style="fill:currentColor" class="ColorScheme-Text" d="M 4.300781 12.820312 L 4.960938 12.820312 C 5.144531 12.820312 5.292969 12.96875 5.292969 13.148438 L 5.292969 19.101562 C 5.292969 19.285156 5.144531 19.433594 4.960938 19.433594 L 4.300781 19.433594 C 4.117188 19.433594 3.96875 19.285156 3.96875 19.101562 L 3.96875 13.148438 C 3.96875 12.96875 4.117188 12.820312 4.300781 12.820312 Z M 4.300781 12.820312 "/>
     <defs>
  <style id="current-color-scheme" type="text/css">
   .ColorScheme-Text { color:#424242; } .ColorScheme-Highlight { color:#eeeeee; }
  </style>
 </defs>
<path style="fill:currentColor" class="ColorScheme-Text" d="M 2.976562 22.742188 L 3.636719 22.742188 C 3.820312 22.742188 3.96875 22.890625 3.96875 23.074219 L 3.96875 29.027344 C 3.96875 29.207031 3.820312 29.355469 3.636719 29.355469 L 2.976562 29.355469 C 2.792969 29.355469 2.644531 29.207031 2.644531 29.027344 L 2.644531 23.074219 C 2.644531 22.890625 2.792969 22.742188 2.976562 22.742188 Z M 2.976562 22.742188 "/>
     <defs>
  <style id="current-color-scheme" type="text/css">
   .ColorScheme-Text { color:#424242; } .ColorScheme-Highlight { color:#eeeeee; }
  </style>
 </defs>
<path style="fill:currentColor" class="ColorScheme-Text" d="M 8.929688 22.742188 L 9.59375 22.742188 C 9.773438 22.742188 9.921875 22.890625 9.921875 23.074219 L 9.921875 29.027344 C 9.921875 29.207031 9.773438 29.355469 9.59375 29.355469 L 8.929688 29.355469 C 8.746094 29.355469 8.601562 29.207031 8.601562 29.027344 L 8.601562 23.074219 C 8.601562 22.890625 8.746094 22.742188 8.929688 22.742188 Z M 8.929688 22.742188 "/>
</g>
</svg>
